src/assets/icons/shapes,simple,filled-triangle.svg

<svg width="48" height="48" viewBox="0 0 48 48" fill="none" xmlns="http://www.w3.org/2000/svg">
<rect opacity="0.2" x="5" y="5" width="38" height="38" rx="4" fill="black"/>
<path d="M20.5359 17C22.0755 14.3333 22.8453 13 24 13C25.1547 13 25.9245 14.3333 27.4641 17L34.3923 29C35.9319 31.6667 36.7017 33 36.1244 34C35.547 35 34.0074 35 30.9282 35H17.0718C13.9926 35 12.453 35 11.8756 34C11.2983 33 12.0681 31.6667 13.6077 29L20.5359 17Z" fill="black"/>
</svg>

<svg xmlns="http://www.w3.org/2000/svg" width="48" height="48" fill="none" viewBox="0 0 48 48">
  <rect width="38" height="38" x="5" y="5" fill="#000" opacity=".2" rx="4"/>
  <path fill="#000" d="M20.536 17c1.54-2.667 2.31-4 3.464-4 1.155 0 1.924 1.333 3.464 4l6.928 12c1.54 2.667 2.31 4 1.732 5-.577 1-2.117 1-5.196 1H17.072c-3.08 0-4.619 0-5.196-1-.578-1 .192-2.333 1.732-5l6.928-12z"/>
</svg>
